X:77
T: Sommerhambo
C: Mogens Jul Christensen
F: http://www.folketshus.dk/cgi-bin/visnode.cgi?ha-sommer
R:Hambo
O:Denmark
M:3/4
L:1/8
Q:1/4=120
K:G
%P:A
[V:1]"G"B2 B>c "D7"A>B | "G"G2 G>D B,>C | "D7"D>E F>G A>B | c2 c4 |
[V:2]G2 G>A F>G | D2 D>B, G,2 | A,>C D>E F>G | A>G F>E F>A |
[V:1]f2 f>g f>e |d2 d>c A2 | D>E F>G A>c| "Am"c2 "G"B4 |
[V:2]d2 d>e d>c | c>B A>G F2 | A,>C D>E F>A | e2 d4 |
[V:1]B2 B>c "D7"A>B | "G"G2 G>D B,>C | "D7"D>E F>G A>G |"D7"F2 "C"E4 |
[V:2]G2 G>A F>G | D2 D>B, G,2 | A,>C D>E F>D | A,2 C4 |
[V:1]c2 c>B A>c |"G"B2 B>G D2 |  "D7"D>E F>G A>F | "G"G2 G4 :|
[V:2]E2 E>D C>E | G2 G>D B,2 | A>G F>E D>C | [B,2D2] [B,4D4] :|
%P:B
[V:1]|:"G"B>c d>c B>A | "D7"A2 "G"G4 | G>A B>A G>F | "Am"F2 E4 | E2 A2 c2 |
[V:2]|:G>A B>A G>F | F2 [B,4D4] | B,>C D>C B,>A, | A,2 C4 | C2 E2 A2 |
[V:1]"G"D2 G2 B2 |[1 "D7"c>A F>G A>c | c2 "G"B4 :|[2 "D7"D>E F>G A>F | "G"[G,2G2]  [G,4G4] :|
[V:2]B,2 D2 G2 |[1 A>F D>E F>A | A2 G4 :|[2 A,>C D>E F>D | [G,2D2] [G,4D4] :|
W:F\olgende vers synges p\aa 1. gennemspilning af 2. reprisen:
W:
W:Se hvor herligt solen skinner
W:alle folk f\aar r\ode kinder,
W:n\aar til en hambo de glade sig i dansen svinger.
W:H\or musikken, hvor den klinger,
W:det er li'som man f\aar vinger.
W:Livsgl¾den breder sig p\aa en herlig sommerdag.

